TMExperienceViews/assets/list.clipboard.svg

<?xml version="1.0" encoding="UTF-8"?>
<!--Generator: Apple Native CoreSVG 232.5-->
<!DOCTYPE svg
PUBLIC "-//W3C//DTD SVG 1.1//EN"
       "http://www.w3.org/Graphics/SVG/1.1/DTD/svg11.dtd">
<svg version="1.1" xmlns="http://www.w3.org/2000/svg" xmlns:xlink="http://www.w3.org/1999/xlink" width="25.0049" height="40.5908">
 <g>
  <rect height="40.5908" opacity="0" width="25.0049" x="0" y="0"/>
  <path d="M24.6387 10.3857L24.6387 32.5928C24.6387 35.6689 23.1299 37.1924 20.0977 37.1924L4.54102 37.1924C1.50879 37.1924 0 35.6689 0 32.5928L0 10.3857C0 7.30957 1.50879 5.78613 4.54102 5.78613L4.73494 5.78613C4.7226 5.90522 4.7168 6.02753 4.7168 6.15234L4.7168 7.69043C4.7168 7.84636 4.726 7.99843 4.74718 8.14453L4.6582 8.14453C3.13477 8.14453 2.3584 8.96484 2.3584 10.415L2.3584 32.5635C2.3584 34.0283 3.13477 34.834 4.6582 34.834L19.9805 34.834C21.5039 34.834 22.2803 34.0283 22.2803 32.5635L22.2803 10.415C22.2803 8.96484 21.5039 8.14453 19.9805 8.14453L19.8915 8.14453C19.9127 7.99843 19.9219 7.84636 19.9219 7.69043L19.9219 6.15234C19.9219 6.02753 19.9161 5.90522 19.9037 5.78613L20.0977 5.78613C23.1299 5.78613 24.6387 7.30957 24.6387 10.3857Z" fill="#000000"/>
  <path d="M7.79297 9.14062L16.8457 9.14062C17.6953 9.14062 18.208 8.59863 18.208 7.69043L18.208 6.15234C18.208 5.24414 17.6953 4.70215 16.8457 4.70215L15.498 4.70215C15.3955 3.04688 14.0186 1.69922 12.3193 1.69922C10.6201 1.69922 9.24316 3.04688 9.14062 4.70215L7.79297 4.70215C6.94336 4.70215 6.43066 5.24414 6.43066 6.15234L6.43066 7.69043C6.43066 8.59863 6.94336 9.14062 7.79297 9.14062ZM12.3193 6.09375C11.6162 6.09375 11.0449 5.50781 11.0449 4.81934C11.0449 4.10156 11.6162 3.53027 12.3193 3.53027C13.0225 3.53027 13.5938 4.10156 13.5938 4.81934C13.5938 5.50781 13.0225 6.09375 12.3193 6.09375Z" fill="#000000"/>
  <path d="M5.85938 27.9932L12.3633 27.9932C12.8613 27.9932 13.2715 27.583 13.2715 27.085C13.2715 26.5869 12.876 26.1768 12.3633 26.1768L5.85938 26.1768C5.34668 26.1768 4.93652 26.5869 4.93652 27.085C4.93652 27.583 5.36133 27.9932 5.85938 27.9932Z" fill="#000000"/>
  <path d="M5.85938 22.5146L18.7793 22.5146C19.292 22.5146 19.7021 22.1045 19.7021 21.5918C19.7021 21.0938 19.292 20.6982 18.7793 20.6982L5.85938 20.6982C5.34668 20.6982 4.93652 21.0938 4.93652 21.5918C4.93652 22.1045 5.34668 22.5146 5.85938 22.5146Z" fill="#000000"/>
  <path d="M5.85938 17.3145L18.7793 17.3145C19.2773 17.3145 19.7021 16.9043 19.7021 16.4062C19.7021 15.9082 19.2773 15.4834 18.7793 15.4834L5.85938 15.4834C5.36133 15.4834 4.93652 15.9082 4.93652 16.4062C4.93652 16.9043 5.36133 17.3145 5.85938 17.3145Z" fill="#000000"/>
 </g>
</svg>

<svg xmlns="http://www.w3.org/2000/svg" viewBox="0 0 25 41" width="25" height="41" aria-hidden="true">
  <path d="M24.639 10.386V32.593c0 3.076-1.509 4.6-4.541 4.6H4.541c-3.032 0-4.541-1.524-4.541-4.6V10.386c0-3.076 1.509-4.6 4.541-4.6h.194a1.37 1.37 0 0 1-.047.359H4.658C3.135 6.145 2.358 6.965 2.358 8.415v22.149c0 1.464.777 2.27 2.3 2.27h15.323c1.523 0 2.3-.806 2.3-2.27V10.415c0-1.45-.777-2.27-2.3-2.27h-.089a1.37 1.37 0 0 1 .029-.359h.194c3.032 0 4.541 1.524 4.541 4.6Z" fill="#5c6370"/>
  <path d="M7.793 9.141h9.053c.85 0 1.362-.542 1.362-1.45V6.152c0-.908-.513-1.45-1.362-1.45h-1.348A2.62 2.62 0 0 0 12.319 1.699 2.62 2.62 0 0 0 9.14 4.702H7.793c-.85 0-1.362.542-1.362 1.45v1.538c0 .908.512 1.45 1.362 1.45Zm4.526-3.047a1.29 1.29 0 1 1 0 2.563 1.29 1.29 0 0 1 0-2.563Z" fill="#5c6370"/>
  <path d="M5.86 27.993h6.504a.907.907 0 1 0 0-1.816H5.86a.907.907 0 1 0 0 1.816ZM5.86 22.515h12.92a.907.907 0 1 0 0-1.816H5.86a.907.907 0 1 0 0 1.816ZM5.86 17.314h12.92a.919.919 0 1 0 0-1.831H5.86a.919.919 0 1 0 0 1.831Z" fill="#5c6370"/>
</svg>
